!! 00000] TT[WS
!!!OTL: Zhai Mianhua
!!!ARE: Asia, China,ÿShanxi Xixian
!! Ethnic Group: Han
!! WI, 71 (1)
!!!SCT: J0084
!!!YEM: Copyright 1995, estate of Helmut Schaffrath.
**kern
*ICvox
*Ivox
*M2/4
*k[b-]
*F:
{8a
8cc
8cc
16cc
16dd
=1
8cc
8g
8g
8cc
=2
8cc
16cc
16g
8cc
16cc
16g
=3
8f
8f
8d
8c}
=4
{8g
4g
16a
16g
=5
8f
8f
8d
8c
=6
8.cc
16g
8.cc
16g
=7
8.f
16f
8d
8c}
=8
{8g
16g
16a
8.cc
16ff
=9
8a
16g
16a
8g
8d
=10
2c}
==
!!!AGN: Xiaodiao. Laodong, Shouhuo
!!!ONB: ESAC (Essen Associative Code) Database: CHINA
!!!AMT: simple duple
!!!AIN: vox
!!!EED: Helmut Schaffrath
!!!EEV: 1.0
*-
